packages/kaspersky-hexa-ui-icons/src/iconsSVGs/28x20/FlagCaf.svg

<svg width="28" height="20" viewBox="0 0 28 20" fill="none" xmlns="http://www.w3.org/2000/svg">
<g clip-path="url(#clip0_5138_2188)">
<rect width="28" height="20" rx="2" fill="white"/>
<mask id="mask0_5138_2188" style="mask-type:luminance" maskUnits="userSpaceOnUse" x="0" y="0" width="28" height="20">
<rect width="28" height="20" rx="2" fill="white"/>
</mask>
<g mask="url(#mask0_5138_2188)">
<rect width="28" height="20" fill="#19BFBF"/>
<path fill-rule="evenodd" clip-rule="evenodd" d="M8.0282 5.50256C8.0105 5.39637 8.04518 5.28818 8.1213 5.21206L10.569 2.76432C10.6315 2.70181 10.7163 2.66669 10.8047 2.66669H12.4607C12.5869 2.66669 12.7023 2.73802 12.7588 2.85095L13.2412 3.81576C13.2977 3.92869 13.4131 4.00002 13.5393 4.00002H15.794C15.9202 4.00002 16.0357 4.07135 16.0921 4.18428L17.9079 7.81576C17.9643 7.92869 18.0798 8.00002 18.206 8.00002H19.3333C19.608 8.00002 19.7648 8.31361 19.6 8.53335L18.018 10.6426C18.006 10.6586 17.9955 10.6757 17.9866 10.6936L17.3685 11.9296C17.3454 11.9759 17.3333 12.027 17.3333 12.0787V13.2547C17.3333 13.3064 17.3213 13.3575 17.2981 13.4037L16.6667 14.6667L16 16L15.4255 17.1491C15.369 17.262 15.2536 17.3334 15.1273 17.3334H14.206C14.0798 17.3334 13.9643 17.262 13.9079 17.1491L13.3685 16.0704C13.3454 16.0241 13.3333 15.9731 13.3333 15.9213V12.1381C13.3333 12.0497 13.2982 11.9649 13.2357 11.9024L12.7223 11.389C12.6857 11.3524 12.6581 11.3078 12.6418 11.2587L12.076 9.56128C12.0306 9.42516 11.9032 9.33335 11.7597 9.33335H8.94904C8.7861 9.33335 8.64703 9.21555 8.62024 9.05482L8.0282 5.50256Z" fill="white"/>
<path fill-rule="evenodd" clip-rule="evenodd" d="M18.6667 13.6666C18.6667 13.4826 18.8159 13.3333 19 13.3333H19.6667C19.8508 13.3333 20 13.4826 20 13.6666V14.588C20 14.6397 19.988 14.6907 19.9648 14.737L19.4255 15.8157C19.369 15.9286 19.2536 16 19.1273 16H19C18.8159 16 18.6667 15.8507 18.6667 15.6666V13.6666Z" fill="white"/>
</g>
</g>
<defs>
<clipPath id="clip0_5138_2188">
<rect width="28" height="20" fill="white"/>
</clipPath>
</defs>
</svg>

<svg xmlns="http://www.w3.org/2000/svg" width="28" height="20" fill="none" viewBox="0 0 28 20"><g clip-path="url(#a)"><rect width="28" height="20" fill="#fff" rx="2"/><mask id="b" width="28" height="20" x="0" y="0" maskUnits="userSpaceOnUse" style="mask-type:luminance"><rect width="28" height="20" fill="#fff" rx="2"/></mask><g mask="url(#b)"><path fill="#19bfbf" d="M0 0h28v20H0z"/><path fill="#fff" fill-rule="evenodd" d="M8.028 5.503a.333.333 0 0 1 .093-.29l2.448-2.448a.333.333 0 0 1 .236-.098h1.656a.333.333 0 0 1 .298.184l.482.965a.333.333 0 0 0 .298.184h2.255a.333.333 0 0 1 .298.184l1.816 3.632a.333.333 0 0 0 .298.184h1.127c.275 0 .432.314.267.533l-1.582 2.109a.33.33 0 0 0-.031.051l-.618 1.236a.334.334 0 0 0-.035.149v1.176a.33.33 0 0 1-.035.149l-.631 1.263L16 16l-.574 1.149a.334.334 0 0 1-.298.184h-.921a.333.333 0 0 1-.298-.184l-.539-1.079a.334.334 0 0 1-.035-.149v-3.783a.333.333 0 0 0-.098-.236l-.513-.513a.33.33 0 0 1-.08-.13l-.566-1.697a.333.333 0 0 0-.316-.228H8.949a.333.333 0 0 1-.329-.278zm10.639 8.164c0-.184.149-.333.333-.333h.667a.333.333 0 0 1 .333.333v.921a.33.33 0 0 1-.035.149l-.539 1.079a.334.334 0 0 1-.298.184H19a.333.333 0 0 1-.333-.333z" clip-rule="evenodd"/></g></g><defs><clipPath id="a"><path fill="#fff" d="M0 0h28v20H0z"/></clipPath></defs></svg>
